actions/24/print-24.svg

<svg xmlns="http://www.w3.org/2000/svg" width="24" height="24">
    <g fill="#f4f4f7">
        <path d="M17 3v5H7V3h10zm-1 1H8v3h8V4zM5 13.5V13h14v1.5V10H5v3.5zM5 9h14c.5 0 1 .5 1 1v5c0 .5-.5 1-1 1h-1v-2H6v2H5c-.5 0-1-.5-1-1v-5c0-.5.5-1 1-1z"/>
        <path d="M17 15v6H7v-6h10Zm-1 1H8v4h8v-4Z"/>
    </g>
</svg>

<svg xmlns="http://www.w3.org/2000/svg" width="24" height="24" viewBox="0 0 24 24">
  <g fill="none" fill-rule="evenodd">
    <path fill="#f4f4f7" fill-rule="nonzero" d="M17 3L17 8 7 8 7 3 17 3zM16 4L8 4 8 7 16 7 16 4zM5 13.5L5 13 19 13 19 14.5 19 10 5 10 5 13.5zM5 9L19 9C19.5 9 20 9.5 20 10L20 15C20 15.5 19.5 16 19 16L18 16 18 14 6 14 6 16 5 16C4.5 16 4 15.5 4 15L4 10C4 9.5 4.5 9 5 9z"/>
    <path fill="#f4f4f7" fill-rule="nonzero" d="M17,15 L17,21 L7,21 L7,15 L17,15 Z M16,16 L8,16 L8,20 L16,20 L16,16 Z"/>
  </g>
</svg>
